projector-screen-variant-off.svg

<svg fill="currentColor" viewBox="0 0 24 24"><path d="M20.84 22.73 16.11 18H5V9H4c-.55 0-1-.45-1-1V7c0-.55.45-1 1-1h.11l-3-3 1.28-1.27 19.72 19.73zM19 9h1c.55 0 1-.45 1-1V7c0-.55-.45-1-1-1H9.2l9.8 9.8z"/></svg>

<svg  viewBox="0 0 24 24" fill="currentColor"><path  d="M20.84 22.73L16.11 18H5V9H4C3.45 9 3 8.55 3 8V7C3 6.45 3.45 6 4 6H4.11L1.11 3L2.39 1.73L22.11 21.46L20.84 22.73M19 9H20C20.55 9 21 8.55 21 8V7C21 6.45 20.55 6 20 6H9.2L19 15.8V9Z"/></svg>
